X:1
T:Title
%%score 1 ( 2 3 )
L:1/8
Q:1/4=105
M:6/8
K:Bb
V:1 treble nm="Grand Piano, Soprano"
V:2 bass nm="Choir Pad, Clydesdale, CMD"
V:3 bass 
V:1
 [DF] [DF]2 [DF][DB][EA] | [FB] [Ec]2 [Ec] [EG]2 | [EG] [DF]2 [DF][CA][DB] | %3
w: By~J.~H.~Kissinger,~1890 * * * *|||
 [Ec] [DB]2- [DB]2- [DB]/ z/ | [DF] [DF]2 [DF][DB][EA] | [FB] [Ec]2 [Ec] [EG]2 | %6
w: |||
 [Ge] [Fd]2 [DB][CA][DB] | [Ec] [DB]2- [DB]2- [DB]/ z/ | [FB] [FA]2 [FB] [Fc]2 | %9
w: |||
 [FA] [FB]2 [Fc] [Fd]2 | [DF] [EG]2 [EG] [Ge]2 | [Ec] [DB]2- [DB] [CA]2 | [EF] [DF]2 [DF][DB][EA] | %13
w: ||||
 [FB] [Ec]2 [Ec] [EG]2 | [Ge] [Fd]2 [DB][CA][DB] | [Ec] [DB]2- [DB]3- | [DB]3 z3 |] %17
w: ||||
V:2
 [B,,B,] [B,,B,]2 [B,,B,]F,-[C,F,] | [D,B,] [E,G,]2 [E,G,] [E,B,]2 | [E,B,] [F,B,]2 [F,B,] F,2 | %3
 F, [B,,F,]2- [B,,F,]2- [B,,F,]/ z/ | [B,,B,] [B,,B,]2 [B,,B,]F,-[C,F,] | %5
 [D,B,] [E,G,]2 [E,G,] [E,B,]2 | [E,B,] [F,B,]2 [F,B,] F,2 | F, [B,,F,]2- [B,,F,]2- [B,,F,]/ z/ | %8
 [D,B,] [F,C]2 [F,D] [F,E]2 | [E,C] [D,B,]2 [C,A,] [B,,B,]2 | [B,,B,] [E,B,]2 [E,B,] [C,C]2 | %11
 [E,G,] F,2- F,2- F,/ z/ | [F,A,] [B,,B,]2 [B,,B,]F,-[C,F,] | [D,B,] [E,G,]2 [E,G,] [E,B,]2 | %14
 [E,B,] [F,B,]2 [F,B,] F,2 | [F,,F,] [B,,F,]2- [B,,F,]3- | [B,,F,]3 z3 |] %17
V:3
 z3 z .B,,2 | x6 | x6 | x6 | z3 z .B,,2 | x6 | x6 | x6 | x6 | x6 | x6 | x6 | z3 z .B,,2 | x6 | x6 | %15
 x6 | x6 |] %17

